include/LD/assets/icons/custom/custom72.svg

<?xml version="1.0"?><svg xmlns="http://www.w3.org/2000/svg" width="100" height="100" viewBox="0 0 100 100"><g fill="#fff"><path d="m77 20h-54c-1.7 0-3 1.3-3 3s1.3 3 3 3h24v6.2c-10.8 1.4-19 10.6-19 21.7v6.9c0 7.3 5.8 13.2 13.2 13.2h17.7c7.3 0 13.1-5.9 13.1-13.3v-6.9c0-11.1-8.2-20.3-19-21.7v-6.1h24c1.7 0 3-1.3 3-3s-1.3-3-3-3z m-13 33.8c0 0.1 0 0 0 0 0 2.9-2.3 5.2-5.2 5.2h-17.6c-2.9 0-5.1-2.3-5.2-5.2v0.1-0.1 0.1c0.1-7.7 6.2-13.9 13.8-13.9h0.4c7.6 0 13.7 6.2 13.8 13.8z"></path><circle cx="26" cy="76" r="4"></circle><circle cx="74" cy="76" r="4"></circle></g></svg>

<svg xmlns="http://www.w3.org/2000/svg" x="0px" y="0px"
	 width="100px" height="100px" viewBox="0 0 100 100" enable-background="new 0 0 100 100" xml:space="preserve">
<g>
	<path fill="#FFFFFF" d="M77,20H23c-1.7,0-3,1.3-3,3s1.3,3,3,3h24v6.2c-10.8,1.4-19,10.6-19,21.7V60.8C28,68.1,33.8,74,41.2,74h17.7
		C66.2,74,72,68.1,72,60.7v-6.9c0-11.1-8.2-20.3-19-21.7V26h24c1.7,0,3-1.3,3-3S78.7,20,77,20z M64,53.8L64,53.8L64,53.8
		C64,53.9,64,53.8,64,53.8c0,2.9-2.3,5.2-5.2,5.2H41.2c-2.9,0-5.1-2.3-5.2-5.2V53.9V53.8c0,0,0,0,0,0.101C36.1,46.2,42.2,40,49.8,40
		h0.4C57.8,40,63.9,46.2,64,53.8z"/>
	<circle fill="#FFFFFF" cx="26" cy="76" r="4"/>
	<circle fill="#FFFFFF" cx="74" cy="76" r="4"/>
</g>
</svg>
